SVG_Azure_Grouped/Office365/O365 - Planner.svg

<?xml version="1.0" encoding="UTF-8" standalone="no"?>
<!-- Generated by Microsoft Visio, SVG Export O365 - Planner.svg Page-1 -->

<svg
   xmlns:dc="http://purl.org/dc/elements/1.1/"
   xmlns:cc="http://creativecommons.org/ns#"
   xmlns:rdf="http://www.w3.org/1999/02/22-rdf-syntax-ns#"
   xmlns:svg="http://www.w3.org/2000/svg"
   xmlns="http://www.w3.org/2000/svg"
   xmlns:sodipodi="http://sodipodi.sourceforge.net/DTD/sodipodi-0.dtd"
   xmlns:inkscape="http://www.inkscape.org/namespaces/inkscape"
   width="0.78739929in"
   height="0.78739929in"
   viewBox="0 0 56.692898 56.692649"
   xml:space="preserve"
   class="st6"
   version="1.1"
   id="svg39"
   sodipodi:docname="O365 - Planner.svg"
   style="font-size:12px;overflow:visible;color-interpolation-filters:sRGB;fill:none;fill-rule:evenodd;stroke-linecap:square;stroke-miterlimit:3"
   inkscape:version="0.92.5 (2060ec1f9f, 2020-04-08)"><metadata
   id="metadata45"><rdf:RDF><cc:Work
       rdf:about=""><dc:format>image/svg+xml</dc:format><dc:type
         rdf:resource="http://purl.org/dc/dcmitype/StillImage" /></cc:Work></rdf:RDF></metadata><defs
   id="defs43" /><sodipodi:namedview
   pagecolor="#ffffff"
   bordercolor="#666666"
   borderopacity="1"
   objecttolerance="10"
   gridtolerance="10"
   guidetolerance="10"
   inkscape:pageopacity="0"
   inkscape:pageshadow="2"
   inkscape:window-width="640"
   inkscape:window-height="480"
   id="namedview41"
   showgrid="false"
   inkscape:zoom="1.5874554"
   inkscape:cx="37.795168"
   inkscape:cy="28.978854"
   inkscape:window-x="0"
   inkscape:window-y="0"
   inkscape:window-maximized="0"
   inkscape:current-layer="svg39" />
	<style
   type="text/css"
   id="style2">
	<![CDATA[
		.st1 {fill:#185c37;stroke:none;stroke-linecap:butt;stroke-width:20.7908}
		.st2 {fill:#33c481;stroke:none;stroke-linecap:butt;stroke-width:20.7908}
		.st3 {fill:#107c41;stroke:none;stroke-linecap:butt;stroke-width:20.7908}
		.st4 {fill:#21a366;stroke:none;stroke-linecap:butt;stroke-width:20.7908}
		.st5 {fill:none;stroke:none;stroke-linecap:butt;stroke-width:20.7908}
		.st6 {fill:none;fill-rule:evenodd;font-size:12px;overflow:visible;stroke-linecap:square;stroke-miterlimit:3}
	]]>
	</style>

	<g
   id="g37"
   transform="translate(-20.7908,-20.791043)">
		<title
   id="title4">Page-1</title>
		<g
   id="group20835-1"
   transform="translate(20.7908,-34.0157)">
			<title
   id="title6">O365 - Planner.20835</title>
			<g
   id="group20836-2">
				<title
   id="title8">_32</title>
				<g
   id="shape20837-3"
   transform="translate(7.08661,-3.54331)">
					<title
   id="title10">path2</title>
					<path
   d="M 14.17,109.2 V 83.15 H 0 v 26.05 c 0,1.24 1.24,2.3 2.66,2.3 h 8.86 c 1.41,0 2.65,-1.06 2.65,-2.3 z"
   class="st1"
   id="path12"
   inkscape:connector-curvature="0"
   style="fill:#185c37;stroke:none;stroke-width:20.79080009;stroke-linecap:butt" />
				</g>
				<g
   id="shape20838-5"
   transform="translate(28.5236,-24.8031)">
					<title
   id="title15">path4</title>
					<path
   d="M 18.43,111.5 H 6.91 L 0,98.03 6.91,83.15 h 11.52 c 1.41,0 2.65,1.07 2.65,2.31 v 23.56 c 0,1.42 -1.24,2.48 -2.65,2.48 z"
   class="st2"
   id="path17"
   inkscape:connector-curvature="0"
   style="fill:#33c481;stroke:none;stroke-width:20.79080009;stroke-linecap:butt" />
				</g>
				<g
   id="shape20839-7"
   transform="translate(7.08661,-14.1732)">
					<title
   id="title20">path6</title>
					<path
   d="M 28.35,72.52 H 2.3 C 1.06,72.52 0,73.59 0,74.83 v 20.72 h 14.17 v 15.95 h 11.87 c 1.24,0 2.31,-1.06 2.31,-2.3 z"
   class="st3"
   id="path22"
   inkscape:connector-curvature="0"
   style="fill:#107c41;stroke:none;stroke-width:20.79080009;stroke-linecap:butt" />
				</g>
				<g
   id="shape20840-9"
   transform="translate(21.2598,-35.4331)">
					<title
   id="title25">path8</title>
					<rect
   x="0"
   y="93.782898"
   width="14.1732"
   height="17.716499"
   class="st4"
   id="rect27"
   style="fill:#21a366;stroke:none;stroke-width:20.79080009;stroke-linecap:butt" />
				</g>
				<g
   id="shape20841-11">
					<title
   id="title30">path10</title>
					<rect
   x="0"
   y="54.806499"
   width="56.692902"
   height="56.692902"
   class="st5"
   id="rect32"
   style="fill:none;stroke:none;stroke-width:20.79080009;stroke-linecap:butt" />
				</g>
			</g>
		</g>
	</g>
</svg>

<?xml version="1.0" encoding="UTF-8" standalone="no"?>
<!DOCTYPE svg PUBLIC "-//W3C//DTD SVG 1.1//EN" "http://www.w3.org/Graphics/SVG/1.1/DTD/svg11.dtd">
<!-- Generated by Microsoft Visio, SVG Export O365 - Planner.svg Page-1 -->
<svg xmlns="http://www.w3.org/2000/svg" xmlns:xlink="http://www.w3.org/1999/xlink" xmlns:ev="http://www.w3.org/2001/xml-events"
		width="1.36492in" height="1.5486in" viewBox="0 0 98.2745 111.499" xml:space="preserve" color-interpolation-filters="sRGB"
		class="st6">
	<style type="text/css">
	<![CDATA[
		.st1 {fill:#185c37;stroke:none;stroke-linecap:butt;stroke-width:20.7908}
		.st2 {fill:#33c481;stroke:none;stroke-linecap:butt;stroke-width:20.7908}
		.st3 {fill:#107c41;stroke:none;stroke-linecap:butt;stroke-width:20.7908}
		.st4 {fill:#21a366;stroke:none;stroke-linecap:butt;stroke-width:20.7908}
		.st5 {fill:none;stroke:none;stroke-linecap:butt;stroke-width:20.7908}
		.st6 {fill:none;fill-rule:evenodd;font-size:12px;overflow:visible;stroke-linecap:square;stroke-miterlimit:3}
	]]>
	</style>

	<g>
		<title>Page-1</title>
		<g id="group20369-1" transform="translate(20.7908,-34.0157)">
			<title>O365 - Planner.20369</title>
			<g id="group20370-2">
				<title>_32</title>
				<g id="shape20371-3" transform="translate(7.08661,-3.54331)">
					<title>path2</title>
					<path d="M14.17 109.2 L14.17 83.15 L0 83.15 L0 109.2 C0 110.44 1.24 111.5 2.66 111.5 L11.52 111.5 C12.93 111.5
								 14.17 110.44 14.17 109.2 Z" class="st1"/>
				</g>
				<g id="shape20372-5" transform="translate(28.5236,-24.8031)">
					<title>path4</title>
					<path d="M18.43 111.5 L6.91 111.5 L0 98.03 L6.91 83.15 L18.43 83.15 C19.84 83.15 21.08 84.22 21.08 85.46 L21.08
								 109.02 C21.08 110.44 19.84 111.5 18.43 111.5 Z" class="st2"/>
				</g>
				<g id="shape20373-7" transform="translate(7.08661,-14.1732)">
					<title>path6</title>
					<path d="M28.35 72.52 L2.3 72.52 C1.06 72.52 0 73.59 0 74.83 L0 95.55 L14.17 95.55 L14.17 111.5 L26.04 111.5
								 C27.28 111.5 28.35 110.44 28.35 109.2 L28.35 72.52 Z" class="st3"/>
				</g>
				<g id="shape20374-9" transform="translate(21.2598,-35.4331)">
					<title>path8</title>
					<rect x="0" y="93.7829" width="14.1732" height="17.7165" class="st4"/>
				</g>
				<g id="shape20375-11">
					<title>path10</title>
					<rect x="0" y="54.8065" width="56.6929" height="56.6929" class="st5"/>
				</g>
			</g>
		</g>
	</g>
</svg>
